(Exported by FreeCAD)
(Post Processor: linuxcnc_post)
(Output Time:2018-12-08 23:17:39.707590)
(begin preamble)
G17 G54 G40 G49 G80 G90
G21
(begin operation: T7: drill2.5)
(machine: not set, mm/min)
(T7: drill2.5)
M6 T7
M3 S24000
(finish operation: T7: drill2.5)
(begin operation: Drilling)
(machine: not set, mm/min)
(Drilling)
(Begin Drilling)
G0 Z5.000
G90
G98
G83 X16.860 Y2.500 Z-9.000 F300.000 Q5.000 R10.000
G83 X45.840 Y2.500 Z-9.000 F300.000 Q5.000 R10.000
G83 X59.850 Y36.370 Z-9.000 F300.000 Q5.000 R10.000
G83 X56.520 Y62.460 Z-9.000 F300.000 Q5.000 R10.000
G83 X6.180 Y62.460 Z-9.000 F300.000 Q5.000 R10.000
G83 X2.850 Y36.370 Z-9.000 F300.000 Q5.000 R10.000
G80
G0 Z5.000
(finish operation: Drilling)
(begin operation: T8: 2mm drill)
(machine: not set, mm/min)
(T8: 2mm drill)
M6 T8
M3 S24000
(finish operation: T8: 2mm drill)
(begin operation: Drilling001)
(machine: not set, mm/min)
(Drilling001)
(Begin Drilling)
G0 Z5.000
G90
G98
G83 X31.350 Y36.370 Z-9.000 F300.000 Q5.000 R10.000
G80
G0 Z5.000
(finish operation: Drilling001)
(begin operation: T2: fraiser one )
(machine: not set, mm/min)
(T2: fraiser one )
M6 T2
M3 S15000
(finish operation: T2: fraiser one )
(begin operation: RampEntryDressup)
(machine: not set, mm/min)
G0 X0.000 Y0.000 Z5.000
G0 X47.350 Y52.560 Z5.000
G0 X47.350 Y52.560 Z3.000
G1 X47.350 Y44.766 Z-1.500 F1980.000
G1 X47.350 Y52.560 Z-6.000 F1980.000
G1 X47.350 Y20.960 Z-6.000 F1980.000
G1 X37.350 Y20.960 Z-6.000 F1980.000
G1 X37.350 Y39.370 Z-6.000 F1980.000
G3 X34.350 Y42.370 Z-6.000 I-3.000 J-0.000 F1980.000
G1 X28.350 Y42.370 Z-6.000 F1980.000
G3 X25.350 Y39.370 Z-6.000 I0.000 J-3.000 F1980.000
G1 X25.350 Y20.960 Z-6.000 F1980.000
G1 X15.350 Y20.960 Z-6.000 F1980.000
G1 X15.350 Y52.560 Z-6.000 F1980.000
G1 X47.350 Y52.560 Z-6.000 F1980.000
G1 X47.350 Y50.828 Z-7.000 F1980.000
G1 X47.350 Y52.560 Z-8.000 F1980.000
G1 X47.350 Y20.960 Z-8.000 F1980.000
G1 X37.350 Y20.960 Z-8.000 F1980.000
G1 X37.350 Y39.370 Z-8.000 F1980.000
G3 X34.350 Y42.370 Z-8.000 I-3.000 J-0.000 F1980.000
G1 X28.350 Y42.370 Z-8.000 F1980.000
G3 X25.350 Y39.370 Z-8.000 I0.000 J-3.000 F1980.000
G1 X25.350 Y20.960 Z-8.000 F1980.000
G1 X15.350 Y20.960 Z-8.000 F1980.000
G1 X15.350 Y52.560 Z-8.000 F1980.000
G1 X47.350 Y52.560 Z-8.000 F1980.000
G0 X47.350 Y52.560 Z5.000
(finish operation: RampEntryDressup)
(begin operation: T2: fraiser one )
(machine: not set, mm/min)
(T2: fraiser one )
M6 T2
M3 S15000
(finish operation: T2: fraiser one )
(begin operation: MillFace)
(machine: not set, mm/min)
(MillFace)
G0 Z5.000
G0 X59.700 Y36.900
G0 Z3.000
G1 X59.700 Y36.900 Z-5.000 F600.000
G1 X55.000 Y36.900 Z-5.000 F1980.000
G1 X55.000 Y3.000 Z-5.000 F1980.000
G1 X59.700 Y3.000 Z-5.000 F1980.000
G1 X59.700 Y36.900 Z-5.000 F1980.000
G0 X59.700 Y36.900 Z5.000
G0 X7.700 Y36.900 Z5.000
G0 X7.700 Y36.900 Z-2.000
G1 X7.700 Y36.900 Z-5.000 F600.000
G1 X3.000 Y36.900 Z-5.000 F1980.000
G1 X3.000 Y3.000 Z-5.000 F1980.000
G1 X7.700 Y3.000 Z-5.000 F1980.000
G1 X7.700 Y36.900 Z-5.000 F1980.000
G0 Z5.000
(finish operation: MillFace)
(begin operation: T2: fraiser one )
(machine: not set, mm/min)
(T2: fraiser one )
M6 T2
M3 S15000
(finish operation: T2: fraiser one )
(begin operation: DogboneDressup)
(machine: not set, mm/min)
(Profile_Edges001)
(Compensated Tool Path. Diameter: 6.0)
G0 Z5.000
G0 X64.821 Y71.491
G0 Z3.000
G1 X64.821 Y71.491 Z-5.000 F600.000
G2 X65.700 Y69.370 Z-5.000 I-2.121 J-2.121 F1980.000
G1 X65.700 Y39.900 Z-5.000 F1980.000
G2 X62.700 Y36.900 Z-5.000 I-3.000 J0.000 F1980.000
G1 X55.000 Y36.900 Z-5.000 F1980.000
G1 X55.000 Y39.900 Z-5.000 F1980.000
G1 X55.000 Y36.900 Z-5.000 F1980.000
G1 X55.000 Y0.000 Z-5.000 F1980.000
G2 X52.000 Y-3.000 Z-5.000 I-3.000 J0.000 F1980.000
G1 X40.840 Y-3.000 Z-5.000 F1980.000
G2 X37.840 Y0.000 Z-5.000 I0.000 J3.000 F1980.000
G1 X37.840 Y2.000 Z-5.000 F1980.000
G1 X37.840 Y5.000 Z-5.000 F1980.000
G1 X37.840 Y2.000 Z-5.000 F1980.000
G1 X24.860 Y2.000 Z-5.000 F1980.000
G1 X24.860 Y2.000 Z-5.000 F1980.000
G1 X24.860 Y5.000 Z-5.000 F1980.000
G1 X24.860 Y2.000 Z-5.000 F1980.000
G1 X24.860 Y0.000 Z-5.000 F1980.000
G2 X21.860 Y-3.000 Z-5.000 I-3.000 J0.000 F1980.000
G1 X10.700 Y-3.000 Z-5.000 F1980.000
G2 X7.700 Y0.000 Z-5.000 I0.000 J3.000 F1980.000
G1 X7.700 Y36.900 Z-5.000 F1980.000
G1 X7.700 Y39.900 Z-5.000 F1980.000
G1 X7.700 Y36.900 Z-5.000 F1980.000
G1 X-0.000 Y36.900 Z-5.000 F1980.000
G2 X-3.000 Y39.900 Z-5.000 I0.000 J3.000 F1980.000
G1 X-3.000 Y69.370 Z-5.000 F1980.000
G2 X-0.000 Y72.370 Z-5.000 I3.000 J-0.000 F1980.000
G1 X62.700 Y72.370 Z-5.000 F1980.000
G2 X64.821 Y71.491 Z-5.000 I-0.000 J-3.000 F1980.000
G0 Z5.000
(finish operation: DogboneDressup)
(begin operation: T2: fraiser one )
(machine: not set, mm/min)
(T2: fraiser one )
M6 T2
M3 S15000
(finish operation: T2: fraiser one )
(begin operation: TagDressup)
(machine: not set, mm/min)
G0 Z5.000
G0 X64.821 Y71.491 Z5.000
G0 X64.821 Y71.491 Z3.000
G1 X64.821 Y71.491 Z-6.000 F1980.000
G2 X65.700 Y69.370 Z-6.000 I-2.121 J-2.121 F1980.000
G1 X65.700 Y38.786 Z-6.000 F1980.000
G1 X65.700 Y37.358 Z-5.000 F1980.000
G1 X65.700 Y32.012 Z-5.000 F1980.000
G1 X65.700 Y30.584 Z-6.000 F1980.000
G1 X65.700 Y0.000 Z-6.000 F1980.000
G2 X62.700 Y-3.000 Z-6.000 I-3.000 J0.000 F1980.000
G1 X41.240 Y-3.000 Z-6.000 F1980.000
G2 X38.240 Y0.000 Z-6.000 I0.000 J3.000 F1980.000
G1 X38.240 Y2.000 Z-6.000 F1980.000
G1 X38.240 Y5.000 Z-6.000 F1980.000
G1 X38.240 Y2.000 Z-6.000 F1980.000
G1 X24.460 Y2.000 Z-6.000 F1980.000
G1 X24.460 Y5.000 Z-6.000 F1980.000
G1 X24.460 Y2.000 Z-6.000 F1980.000
G1 X24.460 Y0.000 Z-6.000 F1980.000
G2 X21.460 Y-3.000 Z-6.000 I-3.000 J0.000 F1980.000
G1 X0.000 Y-3.000 Z-6.000 F1980.000
G2 X-3.000 Y0.000 Z-6.000 I0.000 J3.000 F1980.000
G1 X-3.000 Y30.584 Z-6.000 F1980.000
G1 X-3.000 Y32.012 Z-5.000 F1980.000
G1 X-3.000 Y37.358 Z-5.000 F1980.000
G1 X-3.000 Y38.786 Z-6.000 F1980.000
G1 X-3.000 Y69.370 Z-6.000 F1980.000
G2 X0.000 Y72.370 Z-6.000 I3.000 J0.000 F1980.000
G1 X27.249 Y72.370 Z-6.000 F1980.000
G1 X28.677 Y72.370 Z-5.000 F1980.000
G1 X34.023 Y72.370 Z-5.000 F1980.000
G1 X35.451 Y72.370 Z-6.000 F1980.000
G1 X62.700 Y72.370 Z-6.000 F1980.000
G2 X64.821 Y71.491 Z-6.000 I0.000 J-3.000 F1980.000
G1 X64.821 Y71.491 Z-8.000 F1980.000
G2 X65.700 Y69.370 Z-8.000 I-2.121 J-2.121 F1980.000
G1 X65.700 Y41.642 Z-8.000 F1980.000
G1 X65.700 Y37.358 Z-5.000 F1980.000
G1 X65.700 Y32.012 Z-5.000 F1980.000
G1 X65.700 Y27.728 Z-8.000 F1980.000
G1 X65.700 Y0.000 Z-8.000 F1980.000
G2 X62.700 Y-3.000 Z-8.000 I-3.000 J0.000 F1980.000
G1 X41.240 Y-3.000 Z-8.000 F1980.000
G2 X38.240 Y0.000 Z-8.000 I0.000 J3.000 F1980.000
G1 X38.240 Y2.000 Z-8.000 F1980.000
G1 X38.240 Y5.000 Z-8.000 F1980.000
G1 X38.240 Y2.000 Z-8.000 F1980.000
G1 X24.460 Y2.000 Z-8.000 F1980.000
G1 X24.460 Y5.000 Z-8.000 F1980.000
G1 X24.460 Y2.000 Z-8.000 F1980.000
G1 X24.460 Y0.000 Z-8.000 F1980.000
G2 X21.460 Y-3.000 Z-8.000 I-3.000 J0.000 F1980.000
G1 X0.000 Y-3.000 Z-8.000 F1980.000
G2 X-3.000 Y0.000 Z-8.000 I0.000 J3.000 F1980.000
G1 X-3.000 Y27.728 Z-8.000 F1980.000
G1 X-3.000 Y32.012 Z-5.000 F1980.000
G1 X-3.000 Y37.358 Z-5.000 F1980.000
G1 X-3.000 Y41.642 Z-8.000 F1980.000
G1 X-3.000 Y69.370 Z-8.000 F1980.000
G2 X0.000 Y72.370 Z-8.000 I3.000 J0.000 F1980.000
G1 X24.393 Y72.370 Z-8.000 F1980.000
G1 X28.677 Y72.370 Z-5.000 F1980.000
G1 X34.023 Y72.370 Z-5.000 F1980.000
G1 X38.307 Y72.370 Z-8.000 F1980.000
G1 X62.700 Y72.370 Z-8.000 F1980.000
G2 X64.821 Y71.491 Z-8.000 I0.000 J-3.000 F1980.000
G0 X64.821 Y71.491 Z5.000
(finish operation: TagDressup)
(begin postamble)
M05
G17 G54 G90 G80 G40
M2
